X:125
T:Lady in the West - Fone
%%VWML:SBG-1-2-777-0
F:http://www.vwml.org/record/SBG/1/2/777
Z:Original Sibelius transcriptions by M. & S. Graebe
L:1/4
M:4/4
I:linebreak $
K:G
V:1 treble nm="P1"
V:2 treble 
V:1
 G | B B d c/A/ | G/^F/ G2 G | B d g f | e d z d |$ e (3d/c/B/ c"^or" g | e d/c/ B B/c/ | d G c B | %8
 A G z z | %9
V:2
 x | x4 | x4 | x4 | x4 |$ x2 x e | x4 | x4 | x4 | %9



